third_party/region-flags/svg/UG.svg

<?xml version="1.0" encoding="UTF-8"?>
<svg xmlns="http://www.w3.org/2000/svg" width="900" height="600">
	<rect width="900" height="600" fill="#000"/>
	<rect y="100" width="900" height="200" fill="#fcdc04"/>
	<rect y="200" width="900" height="100" fill="#d90000"/>
	<rect y="400" width="900" height="200" fill="#fcdc04"/>
	<rect y="500" width="900" height="100" fill="#d90000"/>
	<circle cx="450" cy="300" r="93.5" fill="#fff"/>
	<g stroke="#000">
		<path d="M 433.52031,228.39062 L 427.45593,217.22033 C 429.79607,214.8802 433.73312,213.07128 440.0095,213.07128 C 440.0095,213.49691 439.37106,225.30563 439.37106,225.30563 z" fill="#d90000"/>
		<path d="M 439.37106,225.41204 L 440.22231,213.07128 C 440.22231,213.07128 452.77588,212.32724 459.5843,220.51813 C 459.6907,220.41173 452.88229,230.09231 452.88229,230.09231 z" fill="#fcdc04"/>
		<path d="M 453.0951,229.98591 L 459.26508,220.41173 C 463.41413,224.7736 465.11583,227.85858 465.75427,232.53967 C 465.86068,232.64608 455.96728,234.98622 455.96728,234.87981 C 455.96728,234.7734 453.20151,230.09231 453.0951,229.98591 z" fill="#d90000"/>
		<path d="M 436.60529,388.07318 C 436.60529,388.07318 448.2012,374.77476 470.75458,377.64774 C 467.35037,372.1154 456.3929,372.75384 456.3929,372.75384 C 456.3929,372.75384 452.9887,346.90266 455.64806,345.62578 C 458.30741,344.3489 469.5841,345.73219 469.5841,345.73219 C 471.07299,345.73219 473.62675,341.68954 471.60583,339.13659 C 469.5841,336.58282 463.62694,326.79583 466.07349,324.88051 C 468.52085,322.966 481.81845,325.94457 481.81845,325.94457 L 444.26496,277.85924 C 444.26496,277.85924 440.43513,259.77414 448.09479,251.0504 C 457.35057,243.39073 456.3929,235.09262 456.07368,235.19903 C 454.7968,226.79451 442.03123,220.73014 433.4139,228.49702 C 428.30718,234.667 431.71139,239.34808 431.71139,239.34808 C 431.71139,239.34808 418.30738,242.9651 417.77534,245.30524 C 417.24331,247.64619 432.88186,244.88043 432.88186,244.88043 L 431.39217,255.62508 C 431.39217,255.62508 400.96631,283.28436 424.26453,307.22103 C 424.47735,307.11462 425.00938,306.15696 425.00938,306.15696 C 425.00938,306.15696 433.20108,316.26399 441.8176,318.49772 C 449.9029,326.79583 449.15886,325.51895 449.15886,325.51895 C 449.15886,325.51895 450.75415,338.60455 449.26527,341.1575 C 447.24354,340.51906 426.60548,339.77503 423.51969,340.94469 C 420.75392,341.79595 410.11567,341.26391 412.77503,358.60498 C 414.79595,353.92389 416.60487,349.77483 416.60487,349.77483 C 416.60487,349.77483 416.28565,356.05121 418.83941,358.28576 C 418.41378,351.68935 421.28595,347.22188 421.28595,347.22188 C 421.28595,347.22188 421.81799,354.45592 423.41328,355.51918 C 425.00938,356.58325 425.00938,343.81686 433.83953,344.88093 C 442.66886,345.945 449.05246,345.62578 449.05246,345.62578 C 449.05246,345.62578 452.03104,370.6257 451.07337,372.96665 C 444.68977,371.47696 429.47766,373.60509 428.52,377.43493 C 437.45573,376.90289 441.6056,377.96615 441.6056,377.96615 C 441.6056,377.96615 434.37156,384.34975 436.60529,388.07318 z"/>
		<path d="M 440.19145,251.66041 C 440.19145,251.66041 418.05232,276.06251 427.60376,294.73569 C 428.11224,292.13157 427.89049,290.49566 428.20971,290.60207 C 427.67768,290.28285 430.95517,292.8488 430.7058,292.34925 C 430.77566,290.99927 429.70753,288.10598 429.70753,288.10598 C 430.7058,288.35534 431.70489,288.60552 432.70317,288.85488 C 432.12077,287.77295 431.53756,286.69182 430.95517,285.60988 C 432.37014,285.7764 433.78429,285.9421 435.19926,286.10861 C 435.19926,286.10861 433.70144,282.1147 434.20098,282.1147 C 434.69972,282.1147 437.69535,282.36407 437.69535,282.36407 C 431.39948,271.06545 437.33877,261.68215 440.19145,251.66041 z" fill="#9ca69c" stroke="#9ca69c"/>
		<path d="M 447.88198,230.73075 C 447.88198,230.73075 449.05246,239.13527 444.47777,241.58182 C 443.73293,242.11385 440.86075,243.07151 441.28638,244.77402 C 441.81841,247.11416 443.09448,246.68853 444.9034,246.2629 C 449.69008,245.41165 455.22243,235.19903 447.88198,230.73075 z" fill="#9ca69c" stroke="#9ca69c"/>
		<circle cx="438" cy="238" r="1.8" fill="#fff" stroke="none"/>
		<path d="M 432.56264,244.98602 C 431.39217,245.94368 425.2222,252.32728 431.28576,254.66742 C 437.56295,252.96491 435.86044,251.79525 437.24373,250.41196 C 437.27947,247.53979 434.12301,246.79494 432.56264,244.98602 z" fill="#d90000"/>
		<path d="M 445.96666,305.30652 C 445.64744,306.68981 444.26496,311.79571 446.17947,315.73195 C 451.499,313.49822 453.94555,314.13585 455.75446,315.30633 C 451.39341,311.79571 449.6909,310.30602 445.96666,305.30652 z" fill="#9ca69c" stroke="#9ca69c"/>
		<path d="M 455.11602,329.45519 L 455.43524,341.37032 C 455.43524,341.37032 459.5843,342.11517 461.49881,341.37032 C 463.41413,340.62547 461.3924,333.07221 455.11602,329.45519 z" fill="#fff" stroke="#fff"/>
		<path d="M 485.22266,330.94488 C 485.22266,330.94488 477.56299,312.43415 457.98819,307.75307 C 438.4134,303.07198 440.96635,282.22111 442.56245,280.94423 C 443.41371,279.13531 444.05215,276.36954 449.69008,279.02971 C 455.32883,281.68907 481.28642,294.77387 485.00985,295.41231 C 488.73327,296.05075 485.54188,331.37051 485.22266,330.94488 z" fill="#9ca69c"/>
		<path d="M 466.60552,307.64666 C 466.2863,307.85947 492.77592,323.2844 484.79703,336.58282 C 492.35111,331.58251 489.90375,322.85959 489.90375,322.85959 C 489.90375,322.85959 496.07372,338.92377 481.07361,346.79626 C 482.66971,348.17954 483.73378,347.85951 483.73378,347.85951 L 481.18001,350.41328 C 481.18001,350.41328 480.00954,352.32779 490.11656,347.43388 C 487.34999,349.66843 487.13798,351.26372 487.13798,351.26372 C 487.13798,351.26372 487.88202,353.39185 494.47843,347.6467 C 489.1589,353.39185 487.98843,356.37043 487.98843,356.26403 C 502.3501,354.98715 533.62722,308.2851 478.09503,294.45465 C 481.07442,297.54044 480.64798,297.11482 480.64798,297.11482 z" fill="#d90000"/>
		<path d="M 467.776,303.07198 C 471.39302,305.62493 472.66909,306.47618 473.09472,307.75307 C 469.79692,307.00903 466.81834,307.22103 466.81834,307.22103 C 466.81834,307.22103 459.6907,300.41262 458.41382,299.88058 C 457.45616,299.88058 451.92463,296.36997 451.92463,296.36997 C 449.15886,294.98668 446.60591,285.4125 456.81853,288.17827 C 467.34956,293.17776 468.83926,293.6042 468.83926,293.6042 C 473.02405,294.91601 477.20803,296.22864 481.39283,297.54044 C 483.80444,300.23554 486.21525,302.93064 488.62687,305.62574 C 488.62687,305.62574 475.75489,299.24214 474.15879,299.13574 C 477.6694,302.00791 479.69113,305.94415 479.69113,305.94415 C 475.61274,304.77367 472.0672,303.71042 467.776,303.07198 z" fill="#fff"/>
		<path d="M 417.66893,245.94368 C 417.66893,245.94368 430.00969,242.9651 431.49858,243.39073" stroke="#fff"/>
	</g>
</svg>

<svg xmlns="http://www.w3.org/2000/svg" width="900" height="600"><path d="M0 0h900v600H0z"/><path fill="#fcdc04" d="M0 100h900v200H0z"/><path fill="#d90000" d="M0 200h900v100H0z"/><path fill="#fcdc04" d="M0 400h900v200H0z"/><path fill="#d90000" d="M0 500h900v100H0z"/><circle cx="450" cy="300" r="93.5" fill="#fff"/><g stroke="#000"><path d="M433.52 228.39l-6.064-11.17c2.34-2.34 6.277-4.149 12.553-4.149 0 .426-.638 12.235-.638 12.235z" fill="#d90000"/><path d="M439.371 225.412l.851-12.34s12.554-.745 19.362 7.446c.107-.106-6.702 9.574-6.702 9.574z" fill="#fcdc04"/><path d="M453.095 229.986l6.17-9.574c4.15 4.362 5.85 7.447 6.49 12.128.106.106-9.788 2.446-9.788 2.34 0-.107-2.765-4.788-2.872-4.894z" fill="#d90000"/><path d="M436.605 388.073s11.596-13.298 34.15-10.425c-3.405-5.533-14.362-4.894-14.362-4.894s-3.404-25.851-.745-27.128c2.66-1.277 13.936.106 13.936.106 1.489 0 4.043-4.042 2.022-6.595-2.022-2.554-7.98-12.341-5.533-14.256 2.448-1.915 15.745 1.064 15.745 1.064l-37.553-48.086s-3.83-18.085 3.83-26.809c9.256-7.66 8.298-15.957 7.979-15.851-1.277-8.404-14.043-14.469-22.66-6.702-5.107 6.17-1.703 10.851-1.703 10.851s-13.404 3.617-13.936 5.957c-.532 2.341 15.107-.425 15.107-.425l-1.49 10.745s-30.426 27.66-7.127 51.596c.212-.106.744-1.064.744-1.064s8.192 10.107 16.809 12.34c8.085 8.299 7.34 7.022 7.34 7.022s1.596 13.086.107 15.639c-2.021-.639-22.66-1.383-25.745-.213-2.766.851-13.404.319-10.745 17.66 2.021-4.681 3.83-8.83 3.83-8.83s-.32 6.276 2.234 8.51c-.425-6.596 2.447-11.063 2.447-11.063s.532 7.234 2.127 8.297c1.596 1.064 1.596-11.702 10.427-10.638 8.829 1.064 15.212.745 15.212.745s2.979 25 2.021 27.34c-6.383-1.489-21.595.64-22.553 4.469 8.936-.532 13.086.531 13.086.531s-7.234 6.384-5 10.107z"/><path d="M440.191 251.66s-22.139 24.403-12.587 43.076c.508-2.604.286-4.24.606-4.134-.532-.32 2.745 2.247 2.496 1.747.07-1.35-.998-4.243-.998-4.243l2.995.749-1.748-3.245 4.244.499s-1.498-3.994-.998-3.994c.499 0 3.494.25 3.494.25-6.296-11.3-.356-20.683 2.496-30.705zM447.882 230.73s1.17 8.405-3.404 10.852c-.745.532-3.617 1.49-3.192 3.192.532 2.34 1.808 1.915 3.617 1.489 4.787-.851 10.32-11.064 2.979-15.532z" fill="#9ca69c" stroke="#9ca69c"/><circle cx="438" cy="238" r="1.8" fill="#fff" stroke="none"/><path d="M432.563 244.986c-1.17.958-7.34 7.341-1.277 9.681 6.277-1.702 4.574-2.872 5.958-4.255.035-2.872-3.121-3.617-4.681-5.426z" fill="#d90000"/><path d="M445.967 305.307c-.32 1.383-1.702 6.489.212 10.425 5.32-2.234 7.767-1.596 9.575-.426-4.36-3.51-6.063-5-9.787-10z" fill="#9ca69c" stroke="#9ca69c"/><path d="M455.116 329.455l.32 11.915s4.148.745 6.063 0-.107-8.298-6.383-11.915z" fill="#fff" stroke="#fff"/><path d="M485.223 330.945s-7.66-18.51-27.235-23.192c-19.575-4.681-17.022-25.532-15.426-26.809.852-1.809 1.49-4.574 7.128-1.914 5.639 2.66 31.596 15.744 35.32 16.382 3.723.639.532 35.959.213 35.533z" fill="#9ca69c"/><path d="M466.606 307.647c-.32.212 26.17 15.637 18.191 28.936 7.554-5 5.107-13.723 5.107-13.723s6.17 16.064-8.83 23.936c1.596 1.384 2.66 1.064 2.66 1.064l-2.554 2.553s-1.17 1.915 8.937-2.98c-2.767 2.235-2.979 3.83-2.979 3.83s.744 2.129 7.34-3.616c-5.32 5.745-6.49 8.723-6.49 8.617 14.362-1.277 45.64-47.979-9.893-61.81 2.98 3.086 2.553 2.66 2.553 2.66z" fill="#d90000"/><path d="M467.776 303.072c3.617 2.553 4.893 3.404 5.319 4.681-3.298-.744-6.277-.532-6.277-.532s-7.127-6.808-8.404-7.34c-.958 0-6.49-3.511-6.49-3.511-2.765-1.383-5.318-10.957 4.895-8.192 10.53 5 12.02 5.426 12.02 5.426 4.185 1.312 8.369 2.625 12.554 3.936l7.234 8.086s-12.872-6.384-14.468-6.49c3.51 2.872 5.532 6.808 5.532 6.808-4.078-1.17-7.624-2.234-11.915-2.872z" fill="#fff"/><path d="M417.669 245.944s12.34-2.979 13.83-2.553" stroke="#fff"/></g></svg>
